X:268
T:Merry Dancers,The. RH.268
T:High Way to Eglinton,The,aka. RH.268
T:Bonny Lass,The, aka. RH.268
R:jig
S:Rev.R.Harrison’s MS,c1815,Cumbria
O:England
A:Temple Sowerby,Cumbria
Z:vmp.Simon Wilson. Review PJH, 2008.
M:6/8
L:1/8
Q:3/8=120
K:G
c|BAB cGE|GAG G2c|BAB cGE|DED D2c|!
BAB cGE|GAG G2c|(B/c/dB) c2B|AFD D2:|!
|:c|(B/c/dB) GAG|B/c/dB G2c|(B/c/dB) GAB|AFD D2c|!
B/c/dB GAG|B/c/dB c2e|dcB c2B|AFD D2:|

